Costumes/mouse1-a.svg

<?xml version="1.0" encoding="UTF-8" standalone="no"?>
<svg
   version="1.1"
   width="99.579231"
   height="59.603821"
   viewBox="-1 -1 99.579231 59.603821"
   id="svg30"
   sodipodi:docname="mouse1-a.svg"
   xmlns:inkscape="http://www.inkscape.org/namespaces/inkscape"
   xmlns:sodipodi="http://sodipodi.sourceforge.net/DTD/sodipodi-0.dtd"
   xmlns="http://www.w3.org/2000/svg"
   xmlns:svg="http://www.w3.org/2000/svg">
  <defs
     id="defs34" />
  <sodipodi:namedview
     id="namedview32"
     pagecolor="#ffffff"
     bordercolor="#000000"
     borderopacity="0.25"
     inkscape:showpageshadow="2"
     inkscape:pageopacity="0.0"
     inkscape:pagecheckerboard="0"
     inkscape:deskcolor="#d1d1d1" />
  <!-- Exported by Scratch - http://scratch.mit.edu/ -->
  <g
     id="ID0.5386521480977535"
     transform="translate(-1.3300203,-1.5233239)">
    <path
       id="Back_Foot_1"
       fill="#7f7f7f"
       stroke="#000000"
       stroke-width="2"
       d="m 29.097,67.849 c 0,0 -7.306,4.679 -9.729,3.371 -2.427,-1.308 -5.394,-1.681 -5.858,-0.798 -0.927,1.762 2.273,3.404 2.273,3.404 0,0 -5.062,1.936 -4.139,4.121 0.923,2.185 6.877,0.817 6.877,0.817 0,0 -1.51,5.147 1.998,5.595 3.512,0.446 2.773,-8.416 2.773,-8.416 0,0 5.561,-2.389 8.202,-3.003 3.62,-0.842 0.14,-6.942 -2.397,-5.091 z"
       transform="matrix(-0.00722746,-0.69829988,0.69829988,-0.00722746,-10.45,68.05)" />
    <path
       id="Back_Foot_2"
       fill="#7f7f7f"
       stroke="#000000"
       stroke-width="2"
       d="m 68.236,73.382 c 0,0 7.921,3.539 8.158,6.282 0.239,2.746 1.557,5.431 2.55,5.335 1.979,-0.192 1.597,-3.77 1.597,-3.77 0,0 4.397,3.168 5.719,1.196 1.318,-1.971 -3.094,-6.196 -3.094,-6.196 0,0 5.132,-1.563 3.58,-4.741 -1.556,-3.181 -8.559,2.303 -8.559,2.303 0,0 -5.05,-3.336 -7.013,-5.207 -2.691,-2.565 -5.877,3.693 -2.938,4.798 z"
       transform="matrix(-0.00722746,-0.69829988,0.69829988,-0.00722746,-10.45,68.05)" />
    <path
       id="Front_Foot_2"
       fill="#7f7f7f"
       stroke="#000000"
       stroke-width="2"
       d="m 65.236,100.607 c 0,0 7.921,3.539 8.158,6.282 0.239,2.746 1.557,5.431 2.55,5.335 1.979,-0.192 1.597,-3.77 1.597,-3.77 0,0 4.397,3.169 5.719,1.195 1.318,-1.972 -3.094,-6.195 -3.094,-6.195 0,0 5.132,-1.563 3.58,-4.74 -1.556,-3.183 -8.559,2.303 -8.559,2.303 0,0 -5.05,-3.338 -7.013,-5.208 -2.691,-2.563 -5.877,3.694 -2.938,4.798 z"
       transform="matrix(-0.00722746,-0.69829988,0.69829988,-0.00722746,-10.45,68.05)" />
    <path
       id="Front_Foot_1"
       fill="#7f7f7f"
       stroke="#000000"
       stroke-width="2"
       d="m 28.189,94.457 c 0,0 -5.839,6.416 -8.519,5.783 -2.685,-0.631 -5.646,-0.221 -5.865,0.754 -0.438,1.94 3.08,2.694 3.08,2.694 0,0 -4.386,3.187 -2.924,5.059 1.459,1.868 6.853,-1 6.853,-1 0,0 -0.12,5.362 3.382,4.883 3.509,-0.482 0.49,-8.851 0.49,-8.851 0,0 4.75,-3.751 7.14,-5.029 3.278,-1.756 -1.668,-6.739 -3.637,-4.293 z"
       transform="matrix(-0.00722746,-0.69829988,0.69829988,-0.00722746,-10.45,68.05)" />
    <path
       id="Body"
       fill="#7f7f7f"
       stroke="#000000"
       stroke-width="2"
       d="M 37.116,116.515 C 31.949,112.228 24.918,100.486 26.927,77.924 28.935,55.362 42.991,50.283 56.812,53.117 70.63,55.953 77.395,68.858 73.349,87.49 c -5.398,17.524 -5.709,19.333 -8.898,25.357 -7.501,14.168 -21.62,8.41 -27.335,3.668 z M 26.927,77.923 C 28.935,55.361 42.991,50.281 56.813,53.117 70.631,55.951 77.396,68.857 73.35,87.489"
       transform="matrix(-0.00722746,-0.69829988,0.69829988,-0.00722746,-10.45,68.05)" />
    <g
       id="Head">
      <path
         id="Whisker4"
         fill="none"
         stroke="#000000"
         stroke-linecap="round"
         d="m 35.304,147.849 c 0,0 -3.681,0.829 -6.125,4.875"
         transform="matrix(-0.00722746,-0.69829988,0.69829988,-0.00722746,-10.45,68.05)" />
      <path
         id="Whisker3"
         fill="none"
         stroke="#000000"
         stroke-linecap="round"
         d="m 37.114,150.41 c 0,0 -3.146,2.076 -4.003,6.728"
         transform="matrix(-0.00722746,-0.69829988,0.69829988,-0.00722746,-10.45,68.05)" />
      <path
         id="Whisker2"
         fill="none"
         stroke="#000000"
         stroke-linecap="round"
         d="m 59.466,149.039 c 0,0 3.682,0.827 6.125,4.875"
         transform="matrix(-0.00722746,-0.69829988,0.69829988,-0.00722746,-10.45,68.05)" />
      <path
         id="Whisker1"
         fill="none"
         stroke="#000000"
         stroke-linecap="round"
         d="m 56.587,151.438 c 0,0 3.147,2.077 4.003,6.729"
         transform="matrix(-0.00722746,-0.69829988,0.69829988,-0.00722746,-10.45,68.05)" />
      <path
         id="Head_1_"
         fill="#7f7f7f"
         stroke="#000000"
         stroke-width="2"
         d="m 30.537,131.624 c 0,0 -1.472,6.424 3.481,14.872 2.279,3.886 6.029,7.638 13.002,7.652 10.106,0.024 14.624,-6.813 16.769,-10.314 4.488,-7.323 1.802,-13.111 1.802,-13.111 -10e-4,-5.47 -8.048,-16.37 -17.47,-16.042 -9.422,0.328 -16.502,7.865 -17.584,16.943 z"
         transform="matrix(-0.00722746,-0.69829988,0.69829988,-0.00722746,-10.45,68.05)" />
      <path
         id="Nose"
         stroke="#000000"
         stroke-width="2"
         d="m 46.8,151.053 c 1.294,0 2.467,0.36 3.316,0.941 0.849,0.581 1.375,1.383 1.375,2.269 0,0.886 -0.526,1.688 -1.375,2.269 -0.849,0.581 -2.022,0.941 -3.316,0.941 -1.294,0 -2.467,-0.36 -3.316,-0.941 -0.849,-0.581 -1.375,-1.383 -1.375,-2.269 0,-0.886 0.526,-1.688 1.375,-2.269 0.849,-0.581 2.022,-0.941 3.316,-0.941 z"
         transform="matrix(-0.00722746,-0.69829988,0.69829988,-0.00722746,-10.45,68.05)" />
      <g
         id="R_Eye">
        <path
           id="White"
           fill="#ffffff"
           stroke="#000000"
           d="m 55.322,134.016 c 1.294,0 2.467,0.526 3.317,1.375 0.849,0.85 1.375,2.023 1.375,3.317 0,1.294 -0.526,2.467 -1.375,3.317 -0.85,0.849 -2.023,1.375 -3.317,1.375 -1.294,0 -2.467,-0.526 -3.317,-1.375 -0.849,-0.85 -1.375,-2.023 -1.375,-3.317 0,-1.294 0.526,-2.467 1.375,-3.317 0.85,-0.849 2.023,-1.375 3.317,-1.375 z"
           transform="matrix(-0.00722746,-0.69829988,0.69829988,-0.00722746,-10.45,68.05)" />
        <path
           id="Pupil"
           d="m 56.37,136.683 c 0.807,0 1.539,0.328 2.068,0.858 0.53,0.529 0.858,1.261 0.858,2.068 0,0.807 -0.328,1.539 -0.858,2.068 -0.529,0.53 -1.261,0.858 -2.068,0.858 -0.807,0 -1.539,-0.328 -2.068,-0.858 -0.53,-0.529 -0.858,-1.261 -0.858,-2.068 0,-0.807 0.328,-1.539 0.858,-2.068 0.529,-0.53 1.261,-0.858 2.068,-0.858 z"
           transform="matrix(-0.00722746,-0.69829988,0.69829988,-0.00722746,-10.45,68.05)" />
        <g
           id="Eyelid">
          <path
             id="Lid"
             fill="#58595b"
             d="m 50.179,134.41 c 0,0 4.696,-7.437 10.41,0 0.001,0 -5.785,2.315 -10.41,0 z"
             transform="matrix(-0.00722746,-0.69829988,0.69829988,-0.00722746,-10.45,68.05)" />
          <path
             id="Lash"
             d="m 55.015,136.119 c -3.912,0 -5.683,-1.264 -5.76,-1.319 -0.334,-0.245 -0.406,-0.715 -0.162,-1.049 0.244,-0.332 0.707,-0.405 1.043,-0.166 0.035,0.024 1.76,1.179 5.627,1.019 3.727,-0.16 4.65,-0.845 4.659,-0.852 0.291,-0.29 0.749,-0.277 1.042,0.018 0.293,0.293 0.274,0.784 -0.019,1.077 -0.249,0.249 -1.389,1.074 -5.619,1.255 -0.279,0.011 -0.551,0.017 -0.811,0.017 v 0 z"
             transform="matrix(-0.00722746,-0.69829988,0.69829988,-0.00722746,-10.45,68.05)" />
        </g>
      </g>
      <g
         id="L_Eye">
        <path
           id="White_1_"
           fill="#ffffff"
           stroke="#000000"
           d="m 38.749,133.757 c 1.294,0 2.467,0.526 3.317,1.375 0.849,0.85 1.375,2.023 1.375,3.317 0,1.294 -0.526,2.467 -1.375,3.317 -0.85,0.849 -2.023,1.375 -3.317,1.375 -1.294,0 -2.467,-0.526 -3.317,-1.375 -0.849,-0.85 -1.375,-2.023 -1.375,-3.317 0,-1.294 0.526,-2.467 1.375,-3.317 0.85,-0.849 2.023,-1.375 3.317,-1.375 z"
           transform="matrix(-0.00722746,-0.69829988,0.69829988,-0.00722746,-10.45,68.05)" />
        <path
           id="Pupil_1_"
           d="m 39.886,136.311 c 0.807,0 1.539,0.328 2.068,0.858 0.53,0.529 0.858,1.261 0.858,2.068 0,0.807 -0.328,1.539 -0.858,2.068 -0.529,0.53 -1.261,0.858 -2.068,0.858 -0.807,0 -1.539,-0.328 -2.068,-0.858 -0.53,-0.529 -0.858,-1.261 -0.858,-2.068 0,-0.807 0.328,-1.539 0.858,-2.068 0.529,-0.53 1.261,-0.858 2.068,-0.858 z"
           transform="matrix(-0.00722746,-0.69829988,0.69829988,-0.00722746,-10.45,68.05)" />
        <g
           id="Eyelid_1_">
          <path
             id="Lid_1_"
             fill="#58595b"
             d="m 33.187,134.711 c 0,0 3.897,-7.886 10.354,-1.083 0,0 -5.514,2.902 -10.354,1.083 z"
             transform="matrix(-0.00722746,-0.69829988,0.69829988,-0.00722746,-10.45,68.05)" />
          <path
             id="Lash_1_"
             d="m 38.175,135.905 c -3.891,0.407 -5.783,-0.665 -5.867,-0.713 -0.357,-0.209 -0.479,-0.669 -0.271,-1.025 0.208,-0.355 0.663,-0.478 1.021,-0.273 0.037,0.021 1.873,0.989 5.701,0.428 3.69,-0.547 4.539,-1.323 4.547,-1.332 0.259,-0.317 0.715,-0.354 1.037,-0.091 0.322,0.261 0.354,0.751 0.094,1.073 -0.221,0.273 -1.27,1.213 -5.457,1.832 -0.278,0.041 -0.547,0.074 -0.805,0.101 v 0 z"
             transform="matrix(-0.00722746,-0.69829988,0.69829988,-0.00722746,-10.45,68.05)" />
        </g>
      </g>
      <path
         id="L_Ear"
         fill="#57595b"
         stroke="#000000"
         stroke-width="2"
         d="m 39.987,126.052 c 0,0 0.393,-6.166 -2.354,-11.099 -3.439,-6.18 -11.043,-7.85 -15.695,-4.148 -4.652,3.7 -5.733,11.358 -2.131,15.695 4.865,5.854 12.941,5.854 12.941,5.854"
         transform="matrix(-0.00722746,-0.69829988,0.69829988,-0.00722746,-10.45,68.05)" />
      <path
         id="R_Ear"
         fill="#57595b"
         stroke="#000000"
         stroke-width="2"
         d="m 60.356,132.354 c 0,0 6.179,-0.07 10.892,-3.178 5.904,-3.893 7.001,-11.601 2.964,-15.962 -4.038,-4.361 -11.756,-4.868 -15.812,-0.95 -5.474,5.288 -4.869,13.343 -4.869,13.343"
         transform="matrix(-0.00722746,-0.69829988,0.69829988,-0.00722746,-10.45,68.05)" />
    </g>
    <path
       id="Tail"
       fill="#58595b"
       stroke="#000000"
       stroke-width="2"
       stroke-linejoin="round"
       d="M 47.273,56.65 C 44.91,49.553 41.686,35.623 53.307,24.488 69.283,9.182 95.217,22.684 95.469,22.82 c 0,0 -24.736,-12.011 -39.662,2.286 -10.826,10.372 -6.977,23.873 -4.762,30.521 -1.242,3.346 -3.675,1.199 -3.675,1.199 0,0 -0.039,0 -0.097,-0.176 z"
       transform="matrix(-0.00722746,-0.69829988,0.69829988,-0.00722746,-10.45,68.05)" />
  </g>
</svg>

<svg version="1.1" width="101" height="61" viewBox="-1 -1 101 61" xmlns="http://www.w3.org/2000/svg" xmlns:xlink="http://www.w3.org/1999/xlink">
  <!-- Exported by Scratch - http://scratch.mit.edu/ -->
  <g id="ID0.5386521480977535">
    <path id="Back_Foot_1" fill="#7F7F7F" stroke="#000000" stroke-width="2" d="M 29.097 67.849 C 29.097 67.849 21.791 72.528 19.368 71.220 C 16.941 69.912 13.974 69.539 13.510 70.422 C 12.583 72.184 15.783 73.826 15.783 73.826 C 15.783 73.826 10.721 75.762 11.644 77.947 C 12.567 80.132 18.521 78.764 18.521 78.764 C 18.521 78.764 17.011 83.911 20.519 84.359 C 24.031 84.805 23.292 75.943 23.292 75.943 C 23.292 75.943 28.853 73.554 31.494 72.940 C 35.114 72.098 31.634 65.998 29.097 67.849 L 29.097 67.849 L 29.097 67.849 Z " transform="matrix(-0.0072274585254490376, -0.6982998847961426, 0.6982998847961426, -0.0072274585254490376, -10.45, 68.05)"/>
    <path id="Back_Foot_2" fill="#7F7F7F" stroke="#000000" stroke-width="2" d="M 68.236 73.382 C 68.236 73.382 76.157 76.921 76.394 79.664 C 76.633 82.410 77.951 85.095 78.944 84.999 C 80.923 84.807 80.541 81.229 80.541 81.229 C 80.541 81.229 84.938 84.397 86.260 82.425 C 87.578 80.454 83.166 76.229 83.166 76.229 C 83.166 76.229 88.298 74.666 86.746 71.488 C 85.190 68.307 78.187 73.791 78.187 73.791 C 78.187 73.791 73.137 70.455 71.174 68.584 C 68.483 66.019 65.297 72.277 68.236 73.382 L 68.236 73.382 L 68.236 73.382 Z " transform="matrix(-0.0072274585254490376, -0.6982998847961426, 0.6982998847961426, -0.0072274585254490376, -10.45, 68.05)"/>
    <path id="Front_Foot_2" fill="#7F7F7F" stroke="#000000" stroke-width="2" d="M 65.236 100.607 C 65.236 100.607 73.157 104.146 73.394 106.889 C 73.633 109.635 74.951 112.320 75.944 112.224 C 77.923 112.032 77.541 108.454 77.541 108.454 C 77.541 108.454 81.938 111.623 83.260 109.649 C 84.578 107.677 80.166 103.454 80.166 103.454 C 80.166 103.454 85.298 101.891 83.746 98.714 C 82.190 95.531 75.187 101.017 75.187 101.017 C 75.187 101.017 70.137 97.679 68.174 95.809 C 65.483 93.246 62.297 99.503 65.236 100.607 L 65.236 100.607 L 65.236 100.607 Z " transform="matrix(-0.0072274585254490376, -0.6982998847961426, 0.6982998847961426, -0.0072274585254490376, -10.45, 68.05)"/>
    <path id="Front_Foot_1" fill="#7F7F7F" stroke="#000000" stroke-width="2" d="M 28.189 94.457 C 28.189 94.457 22.350 100.873 19.670 100.240 C 16.985 99.609 14.024 100.019 13.805 100.994 C 13.367 102.934 16.885 103.688 16.885 103.688 C 16.885 103.688 12.499 106.875 13.961 108.747 C 15.420 110.615 20.814 107.747 20.814 107.747 C 20.814 107.747 20.694 113.109 24.196 112.630 C 27.705 112.148 24.686 103.779 24.686 103.779 C 24.686 103.779 29.436 100.028 31.826 98.750 C 35.104 96.994 30.158 92.011 28.189 94.457 L 28.189 94.457 L 28.189 94.457 Z " transform="matrix(-0.0072274585254490376, -0.6982998847961426, 0.6982998847961426, -0.0072274585254490376, -10.45, 68.05)"/>
    <path id="Body" fill="#7F7F7F" stroke="#000000" stroke-width="2" d="M 37.116 116.515 C 31.949 112.228 24.918 100.486 26.927 77.924 C 28.935 55.362 42.991 50.283 56.812 53.117 C 70.630 55.953 77.395 68.858 73.349 87.490 C 67.951 105.014 67.640 106.823 64.451 112.847 C 56.950 127.015 42.831 121.257 37.116 116.515 L 37.116 116.515 L 37.116 116.515 Z M 26.927 77.923 C 28.935 55.361 42.991 50.281 56.813 53.117 C 70.631 55.951 77.396 68.857 73.350 87.489 " transform="matrix(-0.0072274585254490376, -0.6982998847961426, 0.6982998847961426, -0.0072274585254490376, -10.45, 68.05)"/>
    <g id="Head">
      <path id="Whisker4" fill="none" stroke="#000000" stroke-linecap="round" d="M 35.304 147.849 C 35.304 147.849 31.623 148.678 29.179 152.724 " transform="matrix(-0.0072274585254490376, -0.6982998847961426, 0.6982998847961426, -0.0072274585254490376, -10.45, 68.05)"/>
      <path id="Whisker3" fill="none" stroke="#000000" stroke-linecap="round" d="M 37.114 150.410 C 37.114 150.410 33.968 152.486 33.111 157.138 " transform="matrix(-0.0072274585254490376, -0.6982998847961426, 0.6982998847961426, -0.0072274585254490376, -10.45, 68.05)"/>
      <path id="Whisker2" fill="none" stroke="#000000" stroke-linecap="round" d="M 59.466 149.039 C 59.466 149.039 63.148 149.866 65.591 153.914 " transform="matrix(-0.0072274585254490376, -0.6982998847961426, 0.6982998847961426, -0.0072274585254490376, -10.45, 68.05)"/>
      <path id="Whisker1" fill="none" stroke="#000000" stroke-linecap="round" d="M 56.587 151.438 C 56.587 151.438 59.734 153.515 60.590 158.167 " transform="matrix(-0.0072274585254490376, -0.6982998847961426, 0.6982998847961426, -0.0072274585254490376, -10.45, 68.05)"/>
      <path id="Head_1_" fill="#7F7F7F" stroke="#000000" stroke-width="2" d="M 30.537 131.624 C 30.537 131.624 29.065 138.048 34.018 146.496 C 36.297 150.382 40.047 154.134 47.020 154.148 C 57.126 154.172 61.644 147.335 63.789 143.834 C 68.277 136.511 65.591 130.723 65.591 130.723 C 65.590 125.253 57.543 114.353 48.121 114.681 C 38.699 115.009 31.619 122.546 30.537 131.624 L 30.537 131.624 L 30.537 131.624 Z " transform="matrix(-0.0072274585254490376, -0.6982998847961426, 0.6982998847961426, -0.0072274585254490376, -10.45, 68.05)"/>
      <path id="Nose" stroke="#000000" stroke-width="2" d="M 46.800 151.053 C 48.094 151.053 49.267 151.413 50.116 151.994 C 50.965 152.575 51.491 153.377 51.491 154.263 C 51.491 155.149 50.965 155.951 50.116 156.532 C 49.267 157.113 48.094 157.473 46.800 157.473 C 45.506 157.473 44.333 157.113 43.484 156.532 C 42.635 155.951 42.109 155.149 42.109 154.263 C 42.109 153.377 42.635 152.575 43.484 151.994 C 44.333 151.413 45.506 151.053 46.800 151.053 L 46.800 151.053 Z " transform="matrix(-0.0072274585254490376, -0.6982998847961426, 0.6982998847961426, -0.0072274585254490376, -10.45, 68.05)"/>
      <g id="R_Eye">
        <path id="White" fill="#FFFFFF" stroke="#000000" d="M 55.322 134.016 C 56.616 134.016 57.789 134.542 58.639 135.391 C 59.488 136.241 60.014 137.414 60.014 138.708 C 60.014 140.002 59.488 141.175 58.639 142.025 C 57.789 142.874 56.616 143.400 55.322 143.400 C 54.028 143.400 52.855 142.874 52.005 142.025 C 51.156 141.175 50.630 140.002 50.630 138.708 C 50.630 137.414 51.156 136.241 52.005 135.391 C 52.855 134.542 54.028 134.016 55.322 134.016 L 55.322 134.016 Z " transform="matrix(-0.0072274585254490376, -0.6982998847961426, 0.6982998847961426, -0.0072274585254490376, -10.45, 68.05)"/>
        <path id="Pupil" d="M 56.370 136.683 C 57.177 136.683 57.909 137.011 58.438 137.541 C 58.968 138.070 59.296 138.802 59.296 139.609 C 59.296 140.416 58.968 141.148 58.438 141.677 C 57.909 142.207 57.177 142.535 56.370 142.535 C 55.563 142.535 54.831 142.207 54.302 141.677 C 53.772 141.148 53.444 140.416 53.444 139.609 C 53.444 138.802 53.772 138.070 54.302 137.541 C 54.831 137.011 55.563 136.683 56.370 136.683 L 56.370 136.683 Z " transform="matrix(-0.0072274585254490376, -0.6982998847961426, 0.6982998847961426, -0.0072274585254490376, -10.45, 68.05)"/>
        <g id="Eyelid">
          <path id="Lid" fill="#58595B" d="M 50.179 134.410 C 50.179 134.410 54.875 126.973 60.589 134.410 C 60.590 134.410 54.804 136.725 50.179 134.410 L 50.179 134.410 L 50.179 134.410 Z " transform="matrix(-0.0072274585254490376, -0.6982998847961426, 0.6982998847961426, -0.0072274585254490376, -10.45, 68.05)"/>
          <path id="Lash" d="M 55.015 136.119 C 51.103 136.119 49.332 134.855 49.255 134.800 C 48.921 134.555 48.849 134.085 49.093 133.751 C 49.337 133.419 49.800 133.346 50.136 133.585 C 50.171 133.609 51.896 134.764 55.763 134.604 C 59.490 134.444 60.413 133.759 60.422 133.752 C 60.713 133.462 61.171 133.475 61.464 133.770 C 61.757 134.063 61.738 134.554 61.445 134.847 C 61.196 135.096 60.056 135.921 55.826 136.102 C 55.547 136.113 55.275 136.119 55.015 136.119 L 55.015 136.119 L 55.015 136.119 L 55.015 136.119 Z " transform="matrix(-0.0072274585254490376, -0.6982998847961426, 0.6982998847961426, -0.0072274585254490376, -10.45, 68.05)"/>
        </g>
      </g>
      <g id="L_Eye">
        <path id="White_1_" fill="#FFFFFF" stroke="#000000" d="M 38.749 133.757 C 40.043 133.757 41.216 134.283 42.066 135.132 C 42.915 135.982 43.441 137.155 43.441 138.449 C 43.441 139.743 42.915 140.916 42.066 141.766 C 41.216 142.615 40.043 143.141 38.749 143.141 C 37.455 143.141 36.282 142.615 35.432 141.766 C 34.583 140.916 34.057 139.743 34.057 138.449 C 34.057 137.155 34.583 135.982 35.432 135.132 C 36.282 134.283 37.455 133.757 38.749 133.757 L 38.749 133.757 Z " transform="matrix(-0.0072274585254490376, -0.6982998847961426, 0.6982998847961426, -0.0072274585254490376, -10.45, 68.05)"/>
        <path id="Pupil_1_" d="M 39.886 136.311 C 40.693 136.311 41.425 136.639 41.954 137.169 C 42.484 137.698 42.812 138.430 42.812 139.237 C 42.812 140.044 42.484 140.776 41.954 141.305 C 41.425 141.835 40.693 142.163 39.886 142.163 C 39.079 142.163 38.347 141.835 37.818 141.305 C 37.288 140.776 36.960 140.044 36.960 139.237 C 36.960 138.430 37.288 137.698 37.818 137.169 C 38.347 136.639 39.079 136.311 39.886 136.311 L 39.886 136.311 Z " transform="matrix(-0.0072274585254490376, -0.6982998847961426, 0.6982998847961426, -0.0072274585254490376, -10.45, 68.05)"/>
        <g id="Eyelid_1_">
          <path id="Lid_1_" fill="#58595B" d="M 33.187 134.711 C 33.187 134.711 37.084 126.825 43.541 133.628 C 43.541 133.628 38.027 136.530 33.187 134.711 L 33.187 134.711 L 33.187 134.711 Z " transform="matrix(-0.0072274585254490376, -0.6982998847961426, 0.6982998847961426, -0.0072274585254490376, -10.45, 68.05)"/>
          <path id="Lash_1_" d="M 38.175 135.905 C 34.284 136.312 32.392 135.240 32.308 135.192 C 31.951 134.983 31.829 134.523 32.037 134.167 C 32.245 133.812 32.700 133.689 33.058 133.894 C 33.095 133.915 34.931 134.883 38.759 134.322 C 42.449 133.775 43.298 132.999 43.306 132.990 C 43.565 132.673 44.021 132.636 44.343 132.899 C 44.665 133.160 44.697 133.650 44.437 133.972 C 44.216 134.245 43.167 135.185 38.980 135.804 C 38.702 135.845 38.433 135.878 38.175 135.905 L 38.175 135.905 L 38.175 135.905 L 38.175 135.905 Z " transform="matrix(-0.0072274585254490376, -0.6982998847961426, 0.6982998847961426, -0.0072274585254490376, -10.45, 68.05)"/>
        </g>
      </g>
      <path id="L_Ear" fill="#57595B" stroke="#000000" stroke-width="2" d="M 39.987 126.052 C 39.987 126.052 40.380 119.886 37.633 114.953 C 34.194 108.773 26.590 107.103 21.938 110.805 C 17.286 114.505 16.205 122.163 19.807 126.500 C 24.672 132.354 32.748 132.354 32.748 132.354 " transform="matrix(-0.0072274585254490376, -0.6982998847961426, 0.6982998847961426, -0.0072274585254490376, -10.45, 68.05)"/>
      <path id="R_Ear" fill="#57595B" stroke="#000000" stroke-width="2" d="M 60.356 132.354 C 60.356 132.354 66.535 132.284 71.248 129.176 C 77.152 125.283 78.249 117.575 74.212 113.214 C 70.174 108.853 62.456 108.346 58.400 112.264 C 52.926 117.552 53.531 125.607 53.531 125.607 " transform="matrix(-0.0072274585254490376, -0.6982998847961426, 0.6982998847961426, -0.0072274585254490376, -10.45, 68.05)"/>
    </g>
    <path id="Tail" fill="#58595B" stroke="#000000" stroke-width="2" stroke-linejoin="round" d="M 47.273 56.650 C 44.910 49.553 41.686 35.623 53.307 24.488 C 69.283 9.182 95.217 22.684 95.469 22.820 C 95.469 22.820 70.733 10.809 55.807 25.106 C 44.981 35.478 48.830 48.979 51.045 55.627 C 49.803 58.973 47.370 56.826 47.370 56.826 C 47.370 56.826 47.331 56.826 47.273 56.650 L 47.273 56.650 L 47.273 56.650 Z " transform="matrix(-0.0072274585254490376, -0.6982998847961426, 0.6982998847961426, -0.0072274585254490376, -10.45, 68.05)"/>
  </g>
</svg>
